X: 1
T:Hillswick
R:Reel
O:Shetland
M:4/4
K:G
G2G2 Bcd2 | edef gag2 | G2G2 Bcd2 | cdcB A2G2 :|
g2g2 afd2 | edef eaag | fdfg afd2 | edef g2g2|
g2g2 afd2 | B{c}ABd efg2 |\
G2G2 Bcdg | e2dB A2G2|]
